packages/core/src/svgs/npm.svg

<svg width="24" height="24" viewBox="0 0 24 24" fill="none" xmlns="http://www.w3.org/2000/svg">
<g clip-path="url(#clip0_31_14960)">
<path d="M0 0H24V24H0V0Z" fill="#181B1E"/>
<path fill-rule="evenodd" clip-rule="evenodd" d="M11.9999 19.2858C13.9322 19.2858 15.7854 18.5182 17.1517 17.1518C18.5181 15.7855 19.2857 13.9324 19.2857 12.0001C19.2857 10.0678 18.5181 8.21463 17.1517 6.84829C15.7854 5.48196 13.9322 4.71436 11.9999 4.71436C10.0677 4.71436 8.21451 5.48196 6.84817 6.84829C5.48183 8.21463 4.71423 10.0678 4.71423 12.0001C4.71423 13.9324 5.48183 15.7855 6.84817 17.1518C8.21451 18.5182 10.0677 19.2858 11.9999 19.2858ZM11.9999 18.9944C13.8549 18.9944 15.634 18.2575 16.9457 16.9458C18.2573 15.6341 18.9942 13.8551 18.9942 12.0001C18.9942 10.1451 18.2573 8.36605 16.9457 7.05436C15.634 5.74268 13.8549 5.00578 11.9999 5.00578C10.1449 5.00578 8.36592 5.74268 7.05424 7.05436C5.74256 8.36605 5.00566 10.1451 5.00566 12.0001C5.00566 13.8551 5.74256 15.6341 7.05424 16.9458C8.36592 18.2575 10.1449 18.9944 11.9999 18.9944Z" fill="white"/>
<path d="M11.2114 7.47452L11.9614 6.45023C11.9871 6.42023 12.0085 6.42023 12.0343 6.45023L12.7714 7.47881C12.3257 7.45738 12.21 7.99309 12.6343 8.06595C13.0114 8.12595 13.38 8.22023 13.74 8.35738C13.92 8.42595 14.1557 8.30166 14.1043 8.07881C14.07 7.92881 13.9628 7.82166 13.7828 7.76595C13.7228 7.74452 13.7228 7.72738 13.7828 7.71023L14.9485 7.41881C15 7.40166 15.0128 7.41881 14.9871 7.46595L14.16 8.94452C14.1385 8.98309 14.1085 8.99166 14.07 8.98309C12.7071 8.57166 11.3271 8.57595 9.93426 8.99595C9.89998 9.00881 9.86998 8.99595 9.85283 8.96166L9.01283 7.46166C8.98712 7.41881 8.99998 7.40595 9.04283 7.41881L10.1228 7.68881C10.23 7.71452 10.2385 7.75309 10.1357 7.80881C9.94712 7.91166 9.76712 8.04881 9.93855 8.28881C9.97224 8.334 10.0199 8.36687 10.0741 8.38236C10.1283 8.39785 10.1861 8.39509 10.2385 8.37452C10.6114 8.22023 10.9928 8.11738 11.3828 8.06595C11.8028 8.01023 11.6528 7.43595 11.2114 7.47452ZM8.80283 10.6802L8.71712 10.7231C8.69707 10.7386 8.67352 10.7489 8.64855 10.7531C8.59712 10.7531 8.57998 10.7359 8.59283 10.6931C8.70855 10.2988 8.99998 9.95595 9.24426 9.62166C9.3214 9.52738 9.41569 9.45452 9.54426 9.41166C10.1743 9.19309 10.7614 9.06023 11.3143 9.02166C11.3314 9.02166 11.3443 9.03881 11.3357 9.05166C11.2671 9.18881 11.1514 9.28738 11.0014 9.35166C10.53 9.53166 10.1271 9.60881 9.91283 10.1231C9.72855 10.5517 9.58712 11.2502 9.12855 11.4602C8.79855 11.6102 8.72569 12.0302 8.68283 12.3474C8.67426 12.4331 8.65712 12.4331 8.63998 12.3474C8.56712 12.0474 8.55426 11.7559 8.59712 11.4731C8.6314 11.2074 8.78998 10.9888 8.86283 10.7317C8.87998 10.6759 8.86283 10.6588 8.80283 10.6802Z" fill="white"/>
<path d="M12.33 11.7343C12.33 11.9186 12.3643 11.9229 12.4371 11.7514C12.48 11.6529 12.5057 11.5543 12.5228 11.4514C12.5228 11.43 12.5314 11.4086 12.5528 11.3957C12.57 11.3786 12.5957 11.3743 12.6171 11.37C12.7457 11.37 12.8743 11.3786 13.0071 11.4C13.3286 11.4557 13.6071 11.4 13.8428 11.2286C13.8857 11.2029 13.8857 11.1771 13.8428 11.1471C13.5171 10.8986 13.0286 11.0314 12.6471 11.1129C12.5786 11.1257 12.57 11.1129 12.6214 11.0657C12.9214 10.7957 13.3071 10.6929 13.7614 10.7529L13.8814 10.7571C13.9628 10.7571 14.0186 10.7914 14.0443 10.86C14.1343 11.0957 14.2586 11.5586 14.5457 11.6443C14.5714 11.6529 14.58 11.6786 14.5628 11.6957C14.3057 12.0043 14.0914 12.3386 13.9371 12.7071C13.8857 12.8271 13.7228 12.8829 13.5943 12.8357L12.8914 12.5529C12.8528 12.5357 12.8314 12.51 12.8271 12.48C12.8158 12.4273 12.793 12.3777 12.7604 12.3348C12.7279 12.2918 12.6863 12.2566 12.6386 12.2314C12.6189 12.2192 12.5967 12.2116 12.5736 12.2094C12.5506 12.2072 12.5273 12.2103 12.5057 12.2186C12.4918 12.223 12.4789 12.2302 12.4678 12.2398C12.4567 12.2494 12.4478 12.2611 12.4414 12.2743C12.4157 12.3386 12.4414 12.36 12.51 12.3471C12.5657 12.3343 12.6171 12.3643 12.66 12.4371C12.6814 12.48 12.6771 12.5229 12.6428 12.5571C12.6318 12.5681 12.6187 12.5769 12.6043 12.5829L12.1286 12.7714C12.0675 12.7972 11.9996 12.8017 11.9357 12.7843C11.744 12.7296 11.5575 12.6579 11.3786 12.57C11.28 12.5186 11.2971 12.3771 11.4086 12.3557C11.4421 12.3467 11.4772 12.3453 11.5114 12.3514C11.5628 12.36 11.5671 12.3086 11.5628 12.2786C11.5543 12.24 11.5286 12.2186 11.49 12.2143C11.2714 12.18 11.2071 12.33 11.16 12.48C11.1541 12.498 11.1441 12.5144 11.1307 12.5278C11.1173 12.5413 11.1009 12.5513 11.0828 12.5571L10.4228 12.8229C10.2428 12.8957 10.1186 12.8529 10.0457 12.6943C9.87428 12.3343 9.67713 12.0043 9.44142 11.6914C9.41999 11.6657 9.42428 11.6486 9.46285 11.6314C9.77142 11.52 9.84856 11.0829 9.96428 10.8257C9.97713 10.7957 10.0071 10.7743 10.0457 10.77C10.5471 10.6929 10.9457 10.7571 11.2371 10.9586C11.4386 11.1 11.4171 11.1386 11.1643 11.0786C10.8386 11.0014 10.4357 10.9329 10.1443 11.1386C10.1354 11.1439 10.1281 11.1514 10.123 11.1605C10.1179 11.1695 10.1152 11.1796 10.1152 11.19C10.1152 11.2004 10.1179 11.2105 10.123 11.2195C10.1281 11.2286 10.1354 11.2361 10.1443 11.2414C10.4443 11.4257 10.8043 11.4643 11.2243 11.3614C11.3528 11.3314 11.4386 11.3743 11.4771 11.49L11.5757 11.85C11.5886 11.8929 11.6614 11.9143 11.6614 11.8586L11.6486 10.8771C11.6486 10.8386 11.6271 10.8129 11.5886 10.7914C11.1423 10.6039 10.6721 10.4799 10.1914 10.4229C10.1486 10.4186 10.14 10.3971 10.1528 10.3629C10.3243 9.99429 10.5728 9.80143 10.8943 9.78C11.3571 9.75429 11.5928 9.39 11.7557 9.05143C11.7728 9.01714 11.7986 9.00429 11.8414 9.00429L12.1328 9C12.1543 9 12.1757 9.00429 12.1928 9.01714C12.21 9.02571 12.2228 9.03857 12.2357 9.06C12.3857 9.37714 12.66 9.77571 13.0971 9.78C13.4486 9.78429 13.7057 10.1014 13.8471 10.3714C13.8643 10.3971 13.8514 10.4143 13.8214 10.4143C13.3286 10.4786 12.8528 10.6071 12.39 10.8086C12.3557 10.8214 12.3386 10.8471 12.3343 10.8814V11.7343H12.33Z" fill="white"/>
<path d="M15.0857 10.7059C15.0769 10.7303 15.0735 10.7564 15.0757 10.7823C15.0779 10.8082 15.0857 10.8333 15.0985 10.8559C15.3728 11.3273 15.4414 11.8202 15.2914 12.343C15.2614 12.4459 15.2443 12.4459 15.2357 12.3344C15.2143 12.0773 15.15 11.8544 15.0514 11.6702C14.9443 11.4644 14.7128 11.4559 14.5543 11.293C14.4685 11.2116 14.4043 11.1216 14.3571 11.0187C14.2028 10.7059 14.0571 10.3759 13.9157 10.0373C13.8128 9.7973 13.5814 9.46301 13.29 9.4373C13.167 9.42854 13.045 9.40846 12.9257 9.3773C12.8457 9.35656 12.7748 9.30983 12.7243 9.24444L12.6257 9.1073C12.57 9.03873 12.5914 9.00444 12.6814 9.01301C13.3371 9.0773 13.9671 9.22301 14.5714 9.45444C14.6143 9.4673 14.6443 9.4973 14.6657 9.53158C14.8157 9.78016 14.9828 10.0159 15.1671 10.2387C15.2828 10.3802 15.3685 10.543 15.4243 10.7273C15.4371 10.7744 15.4243 10.7959 15.3728 10.783C15.297 10.7657 15.2264 10.7305 15.1671 10.6802C15.1371 10.6587 15.0943 10.6716 15.0814 10.7059H15.0857Z" fill="white"/>
<path d="M14.8457 14.4171C14.9743 14.7171 14.9314 15.0171 14.7343 15.3086C14.6143 15.48 14.5714 15.4671 14.6143 15.2743C14.7471 14.67 14.0571 14.16 14.1514 13.5257C14.2669 12.9766 14.5107 12.4626 14.8629 12.0257C14.8886 11.9914 14.91 11.9914 14.9314 12.0257C15.1886 12.4543 15.2657 12.87 15.1671 13.2686C15.0386 13.8043 15.7843 13.9414 15.21 14.5629C15.1757 14.5971 15.1457 14.5971 15.1157 14.5629L14.9357 14.3529C14.9014 14.3186 14.8286 14.3786 14.8457 14.4171ZM9.08571 14.0743C9.04755 14.0831 9.01206 14.1009 8.98223 14.1262C8.95239 14.1516 8.92909 14.1838 8.91429 14.22C8.88429 14.2843 8.84143 14.2886 8.78143 14.2371C8.54571 14.04 8.49429 13.7486 8.70429 13.53C8.76429 13.4657 8.81143 13.4014 8.84143 13.3329C8.85617 13.3037 8.85924 13.2699 8.85 13.2386C8.79037 13.0295 8.77946 12.8095 8.81809 12.5955C8.85672 12.3816 8.94388 12.1793 9.07286 12.0043C9.08666 11.999 9.10192 11.999 9.11571 12.0043C9.12398 12.0063 9.13144 12.0108 9.13714 12.0171C9.53143 12.4886 10.0629 13.2557 9.77571 13.7914C9.56143 14.19 9.33857 14.4986 9.37286 14.9486C9.37714 15.0129 9.35571 15.0171 9.30429 14.9614C9.06 14.6914 9.00429 14.4043 9.14571 14.1171C9.15857 14.0914 9.12 14.0657 9.08571 14.0743ZM11.4429 13.6757C10.7743 13.8729 10.2429 14.2757 10.3286 14.9914C10.3629 15.2571 10.56 15.4543 10.6886 15.6857C10.7095 15.7258 10.7214 15.7699 10.7237 15.815C10.7259 15.8601 10.7183 15.9052 10.7014 15.9471C10.6071 16.1871 10.5257 16.4314 10.7014 16.6671C10.7271 16.71 10.7186 16.7229 10.6671 16.71C10.6102 16.6982 10.5563 16.6745 10.5091 16.6405C10.4618 16.6066 10.4222 16.5631 10.3929 16.5129C10.3824 16.4957 10.3758 16.4764 10.3735 16.4564C10.3713 16.4364 10.3735 16.4162 10.38 16.3971C10.4571 16.1529 10.2814 15.9943 10.1314 15.8186C9.67714 15.2743 9.86571 14.4214 10.1314 13.8386C10.3071 13.4529 10.7657 13.1957 11.0614 12.8786C11.1386 12.7929 11.2843 12.9814 11.3486 13.0114C11.6057 13.1486 11.8286 13.2129 12.0129 13.2086C12.3058 13.1914 12.5854 13.0802 12.81 12.8914C12.8443 12.8571 12.8786 12.8571 12.9171 12.8914C13.0971 13.05 13.2943 13.2214 13.5043 13.3929C13.9757 13.7786 14.1043 14.3957 14.1386 14.9571C14.1686 15.3771 14.0143 15.6814 13.7314 15.9857C13.6029 16.1229 13.5729 16.2686 13.6286 16.4229C13.6339 16.4352 13.6364 16.4485 13.6356 16.4619C13.6349 16.4753 13.631 16.4884 13.6243 16.5C13.5961 16.5504 13.5581 16.5946 13.5124 16.63C13.4668 16.6653 13.4144 16.6911 13.3586 16.7057C13.3029 16.7229 13.29 16.7057 13.3243 16.6629C13.6414 16.2257 13.17 15.8571 13.5257 15.3814C13.8986 14.8843 13.71 14.2714 13.2086 13.95C13.0116 13.8303 12.7978 13.7408 12.5743 13.6843C12.5265 13.6703 12.4755 13.6718 12.4286 13.6886C12.1509 13.7874 11.8471 13.7844 11.5714 13.68C11.5298 13.6653 11.4845 13.6653 11.4429 13.68V13.6757Z" fill="white"/>
<path d="M11.97 14.2199C12.2829 14.2199 12.5357 14.1728 12.5357 14.1085C12.5357 14.0485 12.2786 13.9971 11.97 13.9971C11.6572 13.9971 11.4 14.0485 11.4 14.1085C11.4 14.1685 11.6572 14.2199 11.97 14.2199Z" fill="white"/>
<path d="M12.15 16.1873C12.1672 16.3587 12.1029 16.5087 11.9486 16.6502C11.8972 16.7016 11.8972 16.9416 11.82 16.9159C11.5036 16.8114 11.2259 16.6143 11.0229 16.3502C11.01 16.3333 11.0017 16.3134 10.9987 16.2924C10.9957 16.2714 10.9981 16.25 11.0057 16.2302C11.1472 15.8873 11.0486 15.5616 10.86 15.2745C10.6543 14.9616 10.6672 14.6487 10.8943 14.3402C10.9672 14.2416 11.0657 14.1816 11.1857 14.1602C11.2157 14.1559 11.2414 14.1602 11.2672 14.1773C11.76 14.4987 12.2357 14.4945 12.6814 14.1645C12.6952 14.1538 12.7114 14.1467 12.7286 14.1437C12.7458 14.1407 12.7634 14.1419 12.78 14.1473C13.0543 14.2245 13.2214 14.4173 13.2772 14.7302C13.32 14.983 13.1914 15.1716 13.0714 15.373C12.8914 15.6945 12.8914 16.0716 13.0843 16.3716C13.1229 16.4359 13.11 16.4873 13.05 16.5302C12.9343 16.6159 12.8014 16.6587 12.6557 16.6673C12.6129 16.6673 12.5786 16.6845 12.5443 16.7187C12.4457 16.813 12.3857 16.933 12.36 17.0659C12.3472 17.1516 12.3086 17.1687 12.2486 17.1002C12.1629 17.0102 12.1029 16.9202 12.1414 16.7873L12.2829 16.3159C12.3 16.2516 12.2314 16.2045 12.1972 16.1659C12.1586 16.1316 12.1457 16.1402 12.1543 16.1873H12.15Z" fill="white"/>
</g>
<defs>
<clipPath id="clip0_31_14960">
<rect width="24" height="24" fill="white"/>
</clipPath>
</defs>
</svg>

<svg xmlns="http://www.w3.org/2000/svg" width="24" height="24" fill="none" viewBox="0 0 24 24"><g clip-path="url(#a)"><path fill="#181B1E" d="M0 0h24v24H0z"/><path fill="#fff" fill-rule="evenodd" d="M12 19.286a7.285 7.285 0 1 0 0-14.571 7.285 7.285 0 0 0 0 14.57m0-.292a6.994 6.994 0 1 0 0-13.989 6.994 6.994 0 0 0 0 13.99" clip-rule="evenodd"/><path fill="#fff" d="m11.211 7.475.75-1.025c.026-.03.047-.03.073 0l.737 1.029c-.445-.022-.561.514-.137.587.377.06.746.154 1.106.291.18.069.416-.055.364-.278q-.051-.227-.321-.313-.09-.031 0-.056l1.165-.291q.078-.025.04.047l-.828 1.479c-.021.038-.052.047-.09.038q-2.046-.617-4.136.013c-.034.013-.064 0-.081-.034l-.84-1.5c-.026-.043-.013-.056.03-.043l1.08.27c.107.026.116.064.013.12-.189.103-.369.24-.197.48a.26.26 0 0 0 .3.086 4.5 4.5 0 0 1 1.144-.309c.42-.056.27-.63-.172-.591M8.803 10.68l-.086.043a.15.15 0 0 1-.068.03c-.052 0-.069-.017-.056-.06.116-.394.407-.737.651-1.071a.64.64 0 0 1 .3-.21c.63-.219 1.217-.352 1.77-.39.017 0 .03.017.022.03a.64.64 0 0 1-.335.3c-.471.18-.874.257-1.088.771-.184.429-.326 1.127-.784 1.337-.33.15-.403.57-.446.887q-.015.129-.043 0a2.25 2.25 0 0 1-.043-.874c.034-.266.193-.484.266-.741.017-.056 0-.073-.06-.052"/><path fill="#fff" d="M12.33 11.734q-.001.276.107.017.062-.146.086-.3-.002-.034.03-.055c.017-.017.043-.022.064-.026q.192 0 .39.03.482.085.836-.171.064-.038 0-.082c-.326-.248-.814-.116-1.196-.034-.068.013-.077 0-.026-.047.3-.27.686-.373 1.14-.313l.12.004q.124 0 .163.103c.09.236.215.699.502.784.025.009.034.035.017.052a4 4 0 0 0-.626 1.011c-.051.12-.214.176-.343.129l-.703-.283q-.058-.027-.064-.073a.37.37 0 0 0-.188-.249.15.15 0 0 0-.171.009.1.1 0 0 0-.027.034c-.025.065 0 .086.069.073q.085-.02.15.09c.021.043.017.086-.017.12a.1.1 0 0 1-.039.026l-.475.188a.3.3 0 0 1-.193.013 3.3 3.3 0 0 1-.557-.214.113.113 0 0 1 .03-.214.24.24 0 0 1 .102-.005c.052.009.056-.042.052-.072q-.014-.058-.073-.065c-.219-.034-.283.116-.33.266a.12.12 0 0 1-.077.077l-.66.266q-.269.11-.377-.129a5.8 5.8 0 0 0-.605-1.003c-.021-.025-.017-.042.022-.06.308-.111.386-.548.501-.805a.1.1 0 0 1 .082-.056q.753-.115 1.191.189.305.21-.073.12c-.325-.078-.728-.146-1.02.06a.06.06 0 0 0 0 .103q.45.275 1.08.12.195-.046.253.128l.099.36c.013.043.085.064.085.009l-.012-.982c0-.038-.022-.064-.06-.086a5.2 5.2 0 0 0-1.398-.368c-.042-.004-.051-.026-.038-.06q.258-.552.741-.583c.463-.026.699-.39.862-.729q.024-.049.085-.047L12.133 9q.033-.001.06.017.024.013.043.043c.15.317.424.716.861.72.352.004.609.321.75.591.017.026.004.043-.026.043a5.3 5.3 0 0 0-1.431.395.08.08 0 0 0-.056.072v.853z"/><path fill="#fff" d="M15.086 10.706a.18.18 0 0 0 .012.15c.275.471.343.964.193 1.487-.03.103-.047.103-.055-.009a1.7 1.7 0 0 0-.185-.664c-.107-.206-.338-.214-.497-.377a.9.9 0 0 1-.197-.274c-.154-.313-.3-.643-.441-.982-.103-.24-.335-.574-.626-.6a2 2 0 0 1-.364-.06.37.37 0 0 1-.202-.133l-.098-.137c-.056-.068-.035-.103.055-.094a7.2 7.2 0 0 1 1.89.441.17.17 0 0 1 .095.078q.225.372.501.707.174.212.257.488c.013.047 0 .069-.051.056a.5.5 0 0 1-.206-.103.057.057 0 0 0-.086.026z"/><path fill="#fff" d="M14.846 14.417c.128.3.085.6-.112.892-.12.171-.163.158-.12-.035.133-.604-.557-1.114-.463-1.748.116-.55.36-1.063.712-1.5q.038-.053.068 0 .386.643.236 1.243c-.128.535.617.672.043 1.294q-.05.051-.094 0l-.18-.21c-.035-.034-.107.026-.09.064m-5.76-.343a.25.25 0 0 0-.172.146q-.044.096-.133.017c-.235-.197-.287-.488-.077-.707a.7.7 0 0 0 .137-.197.13.13 0 0 0 .009-.094 1.42 1.42 0 0 1 .223-1.235.06.06 0 0 1 .043 0 .04.04 0 0 1 .021.013c.394.472.926 1.239.639 1.774-.215.399-.437.708-.403 1.158q.008.096-.069.012c-.244-.27-.3-.557-.158-.844.013-.026-.026-.051-.06-.043m2.357-.398c-.669.197-1.2.6-1.114 1.315.034.266.231.463.36.695a.31.31 0 0 1 .012.261c-.094.24-.175.484 0 .72.026.043.018.056-.034.043a.41.41 0 0 1-.274-.197.14.14 0 0 1-.013-.116c.077-.244-.099-.403-.249-.578-.454-.545-.265-1.398 0-1.98.176-.386.635-.643.93-.96.078-.086.223.102.288.132q.387.205.664.198c.293-.018.572-.129.797-.318q.05-.051.107 0c.18.159.377.33.587.502.472.386.6 1.003.635 1.564.03.42-.125.724-.408 1.029-.128.137-.158.283-.102.437a.09.09 0 0 1-.005.077.43.43 0 0 1-.265.206q-.085.023-.035-.043c.317-.437-.154-.806.202-1.282.373-.497.184-1.11-.317-1.431q-.297-.181-.635-.266a.24.24 0 0 0-.145.005 1.24 1.24 0 0 1-.858-.009.2.2 0 0 0-.128 0z"/><path fill="#fff" d="M11.97 14.22c.313 0 .566-.047.566-.112 0-.06-.257-.11-.566-.11-.313 0-.57.05-.57.11s.257.112.57.112"/><path fill="#fff" d="M12.15 16.187c.017.172-.047.322-.201.463-.052.052-.052.292-.129.266a1.66 1.66 0 0 1-.797-.566.12.12 0 0 1-.017-.12c.141-.343.043-.668-.146-.956q-.308-.47.034-.934a.45.45 0 0 1 .292-.18.1.1 0 0 1 .081.017c.493.322.969.318 1.414-.012a.11.11 0 0 1 .099-.018q.412.115.497.583c.043.253-.086.442-.206.643a.96.96 0 0 0 .013.999q.057.095-.034.158a.7.7 0 0 1-.394.137.15.15 0 0 0-.112.052.64.64 0 0 0-.184.347c-.013.086-.051.103-.111.034-.086-.09-.146-.18-.108-.313l.142-.471c.017-.064-.052-.111-.086-.15q-.056-.05-.043.021z"/></g><defs><clipPath id="a"><path fill="#fff" d="M0 0h24v24H0z"/></clipPath></defs></svg>
